X:1
T:Breathe upon Us
T:Breathe upon Us
T:Russell Kelso Carter
T:Russell Kelso Carter, 1891
T:Public Domain Courtesy of the Cyber Hymnal™
C:Russell Kelso Carter
Z:Public Domain
Z:Courtesy of the Cyber Hymnal™
%%score ( 1 2 ) ( 3 4 )
L:1/8
Q:1/4=130
M:6/4
K:G
V:1 treble 
V:2 treble 
V:3 bass 
V:4 bass 
V:1
 [B,G]4 [CA]2 [DB]4 [B,G]2 | [CE]4 [EG]2 [CE]2 [B,D]4 | [DG]4 [DA]2 [GB]4 [Ac]2 | [Bd]4 [GB]2 A6 | %4
w: 1.~Breathe up- on us,|Lord, from Heav- en,|Fill us with the|Ho- ly Ghost;|
w: 2.~While the Spir- it|hov- ers o’er us,|O- pen all our|hearts, we pray;|
w: 3.~Lift us, Lord, O|lift us high- er,|From the car- nal|mind set free;|
 [DG]4 [DA]2 [GB]4 [DG]2 | [CE]4 [EG]2 [CE]2 [B,D]4 | [Gd]4 [Ge]2 [Gd]2 [GB]4 | %7
w: Prom- ise of the|Fa- ther giv- en,|Send us now a|
w: To Thine im- age,|Lord, re- store us,|Wit- ness in our|
w: Fill us with re-|fin- ing fi- re,|Give us per- fect|
 [FA]4 [DG]2 [DG]6!fine! ||"^Refrain" [FA]4 [GB]2 [Ac]4 [FA]2 | [Bd]4 [Ac]2 [Ac]2 [GB]4 | %10
w: Pen- te- cost.|||
w: souls to- day.|Breathe up- on us,|breathe up- on us,|
w: lib- er- ty.|||
 [Bd]4 [ce]2 [Bd]4 [GB]2 | [GA]4 [GB]2 A6"^riten." | [DG]4 [DA]2 [GB]4 [DG]2 | %13
w: |||
w: With Thy love our|hearts in- spire.|Breathe up- on us,|
w: |||
 [CE]4 [EG]2 [CE]2 [B,D]4 | [Gd]4 [Ge]2 [Gd]2 [GB]4 | [FA]4 [DG]2 [DG]6 |] %16
w: |||
w: breathe up- on us,|Lord, bap- tize us|now with fire.|
w: |||
V:2
 x12 | x12 | x12 | x6 (F4 D2) | x12 | x12 | x12 | x12 || x12 | x12 | x12 | x6 (FED C3) | x12 | %13
 x12 | x12 | x12 |] %16
V:3
 [G,,G,]4 [G,,G,]2 [G,,G,]4 [G,,G,]2 | [C,G,]4 [C,C]2 [C,G,]2 [G,,G,]4 | %2
 [G,B,]4 [G,C]2 [G,D]4 [G,D]2 | [G,D]4 [G,D]2 (D4 C2) | [G,B,]4 [G,C]2 [G,D]4 [G,B,]2 | %5
 [C,G,]4 [C,C]2 [C,G,]2 [G,,G,]4 | [G,B,]4 [G,C]2 [G,B,]2 [G,D]4 | [D,C]4 [G,,B,]2 [G,,G,B,]6 || %8
 [D,D]4 [D,D]2 [D,D]4 [D,D]2 | [D,D]4 [D,D]2 [G,D]2 [G,D]4 | [G,D]4 [G,D]2 [G,D]4 [G,D]2 | %11
 [A,^C]4 [A,C]2 (D=CB, A,3) | [G,B,]4 [G,C]2 [G,D]4 [G,B,]2 | [C,G,]4 [C,C]2 [C,G,]2 [G,,G,]4 | %14
 [G,B,]4 [G,C]2 [G,B,]2 [G,D]4 | [D,C]4 [G,,B,]2 [G,,G,B,]6 |] %16
V:4
 x12 | x12 | x12 | x6 D,6 | x12 | x12 | x12 | x12 || x12 | x12 | x12 | x6 D,6 | x12 | x12 | x12 | %15
 x12 |] %16

